src/img/bus_icon.svg

<svg width="20" height="16" viewBox="0 0 20 16" fill="none" xmlns="http://www.w3.org/2000/svg">
<path fill-rule="evenodd" clip-rule="evenodd" d="M0 3.03448C0 1.35858 1.40711 0 3.14286 0H16.8571C18.5929 0 20 1.35858 20 3.03448V12.9655C20 13.4226 19.6162 13.7931 19.1429 13.7931H16.8571C16.3838 13.7931 16 13.4226 16 12.9655C16 12.5085 16.3838 12.1379 16.8571 12.1379H18.2857V3.03448C18.2857 2.27271 17.6461 1.65517 16.8571 1.65517H3.14286C2.35388 1.65517 1.71429 2.27271 1.71429 3.03448V12.1379H3.14286C3.61624 12.1379 4 12.5085 4 12.9655C4 13.4226 3.61624 13.7931 3.14286 13.7931H0.857143C0.383756 13.7931 0 13.4226 0 12.9655V3.03448ZM6.85714 12.9655C6.85714 12.5085 7.2409 12.1379 7.71429 12.1379H12.2857C12.7591 12.1379 13.1429 12.5085 13.1429 12.9655C13.1429 13.4226 12.7591 13.7931 12.2857 13.7931H7.71429C7.2409 13.7931 6.85714 13.4226 6.85714 12.9655Z" fill="#454754"/>
<path fill-rule="evenodd" clip-rule="evenodd" d="M5.42857 11.5862C4.63959 11.5862 4 12.2037 4 12.9655C4 13.7273 4.63959 14.3448 5.42857 14.3448C6.21755 14.3448 6.85714 13.7273 6.85714 12.9655C6.85714 12.2037 6.21755 11.5862 5.42857 11.5862ZM2.28571 12.9655C2.28571 11.2896 3.69282 9.93103 5.42857 9.93103C7.16432 9.93103 8.57143 11.2896 8.57143 12.9655C8.57143 14.6414 7.16432 16 5.42857 16C3.69282 16 2.28571 14.6414 2.28571 12.9655Z" fill="#454754"/>
<path fill-rule="evenodd" clip-rule="evenodd" d="M14.5714 11.5862C13.7825 11.5862 13.1429 12.2037 13.1429 12.9655C13.1429 13.7273 13.7825 14.3448 14.5714 14.3448C15.3604 14.3448 16 13.7273 16 12.9655C16 12.2037 15.3604 11.5862 14.5714 11.5862ZM11.4286 12.9655C11.4286 11.2896 12.8357 9.93103 14.5714 9.93103C16.3072 9.93103 17.7143 11.2896 17.7143 12.9655C17.7143 14.6414 16.3072 16 14.5714 16C12.8357 16 11.4286 14.6414 11.4286 12.9655Z" fill="#454754"/>
<path fill-rule="evenodd" clip-rule="evenodd" d="M0 6.34483C0 5.88776 0.383756 5.51724 0.857143 5.51724H19.1429C19.6162 5.51724 20 5.88776 20 6.34483C20 6.80189 19.6162 7.17241 19.1429 7.17241H0.857143C0.383756 7.17241 0 6.80189 0 6.34483Z" fill="#454754"/>
<path fill-rule="evenodd" clip-rule="evenodd" d="M13.4286 0C13.902 0 14.2857 0.370523 14.2857 0.827586V6.34483C14.2857 6.80189 13.902 7.17241 13.4286 7.17241C12.9552 7.17241 12.5714 6.80189 12.5714 6.34483V0.827586C12.5714 0.370523 12.9552 0 13.4286 0Z" fill="#454754"/>
</svg>

<svg fill="none" xmlns="http://www.w3.org/2000/svg" viewBox="0 0 20 16"><path fill-rule="evenodd" clip-rule="evenodd" d="M0 3a3 3 0 013.1-3H17A3 3 0 0120 3v10c0 .4-.4.8-.9.8H17a.8.8 0 01-.9-.8c0-.5.4-.9.9-.9h1.4v-9c0-.8-.7-1.4-1.4-1.4H3c-.7 0-1.4.6-1.4 1.3v9.1h1.4c.5 0 .9.4.9.9 0 .4-.4.8-.9.8H1A.8.8 0 010 13V3zm6.9 10c0-.5.3-.9.8-.9h4.6c.5 0 .8.4.8.9 0 .4-.3.8-.8.8H7.7A.8.8 0 017 13z" fill="#454754"/><path fill-rule="evenodd" clip-rule="evenodd" d="M5.4 11.6c-.8 0-1.4.6-1.4 1.4 0 .7.6 1.3 1.4 1.3.8 0 1.5-.6 1.5-1.3 0-.8-.7-1.4-1.5-1.4zM2.3 13a3 3 0 013.1-3 3 3 0 013.2 3 3 3 0 01-3.2 3 3 3 0 01-3.1-3zM14.6 11.6c-.8 0-1.5.6-1.5 1.4 0 .7.7 1.3 1.5 1.3S16 13.7 16 13c0-.8-.6-1.4-1.4-1.4zM11.4 13a3 3 0 013.2-3 3 3 0 013.1 3 3 3 0 01-3.1 3 3 3 0 01-3.2-3zM0 6.3c0-.4.4-.8.9-.8H19c.5 0 .9.4.9.8 0 .5-.4.9-.9.9H1a.8.8 0 01-.9-.9z" fill="#454754"/><path fill-rule="evenodd" clip-rule="evenodd" d="M13.4 0c.5 0 .9.4.9.8v5.5c0 .5-.4.9-.9.9a.8.8 0 01-.8-.9V.8c0-.4.4-.8.8-.8z" fill="#454754"/></svg>
